!!!COM: Claude Goudimel
!!!OMD: Psalm 84: O Dieu des armees, combien
**kern	**kern	**kern	**kern
*part4	*part3	*part2	*part1
*staff4	*staff3	*staff2	*staff1
*I"bassus	*I"tenor	*I"contra	*I"superius
*clefF4	*clefC4	*clefC3	*clefC1
*k[b-]	*k[b-]	*k[b-]	*k[b-]
!!LO:TX:omd:t=
*M2/2	*M2/2	*M2/2	*M2/2
*met(c|)	*met(c|)	*met(c|)	*met(c|)
=1	=1	=1	=1
1F	1F	1A	1c
=2	=2	=2	=2
1F	1c	1A	1a
=3	=3	=3	=3
2BB-	2B-	2d	2f
2F	2A	2c	2f
=4	=4	=4	=4
2C	2G	2c	2e
2D	2F	2A	2d
=5	=5	=5	=5
1C	1G	1c	1e
=6	=6	=6	=6
1F	1A	1c	1f
=7	=7	=7	=7
1r	1r	1r	1r
=8	=8	=8	=8
1F	1A	1c	1c
=9	=9	=9	=9
2BB-	2d	2B-	2f
2BB-	2d	2B-	2f
=10	=10	=10	=10
2F	2c	2A	2f
2F	2A	2c	2f
=11	=11	=11	=11
1F	1c	1f	1a
=12	=12	=12	=12
1G	1B-	1d	1g
=13	=13	=13	=13
1D	1A	1d	1f#X
=14	=14	=14	=14
1r	1r	1r	1r
=15	=15	=15	=15
1F	1c	1A	1f
=16	=16	=16	=16
2G	2B-	2G	2d
2D	2A	2F	2d
=17	=17	=17	=17
2E-X	2G	2B-	2B-
2F	2c	2A	2f
=18	=18	=18	=18
2BB-	2B-	2d	2g
2FF	2A	2c	[2f
=19	=19	=19	=19
1C	1G	1c	2f]
.	.	.	2e
=20	=20	=20	=20
1F	1F	1c	1f
=21	=21	=21	=21
1r	1r	1r	1r
=22	=22	=22	=22
1F	1F	1A	1c
=23	=23	=23	=23
2D	2A	2F	2d
2G	2B-	2G	2d
=24	=24	=24	=24
1F	1c	1A	1f
=25	=25	=25	=25
1BB-	1d	1B-	1f
=26	=26	=26	=26
2C	2c	2G	2e
2GG	2Bn	2G	2d
=27	=27	=27	=27
1C	1c	1G	1e
=28	=28	=28	=28
1r	1r	1r	1r
=29	=29	=29	=29
1F	1F	1A	1c
=30	=30	=30	=30
2D	2A	2d	2f
2G	2B-	2d	2g
=31	=31	=31	=31
1F	1c	1f	1a
=32	=32	=32	=32
1BB-	1d	1f	1b-
=33	=33	=33	=33
2C	2c	2e	2g
2GG	2Bn	2d	2g
=34	=34	=34	=34
1C	1c	1e	1g
=35	=35	=35	=35
1r	1r	1r	1r
=36	=36	=36	=36
1BB-	1f	1d	1b-
=37	=37	=37	=37
2C	2e	2c	2g
2BB-	2d	2f	2b-
=38	=38	=38	=38
1F	1c	1f	1a
=39	=39	=39	=39
1F	1A	1f	1f
=40	=40	=40	=40
2G	2B-	2d	2b-
2F	2c	2f	2a
=41	=41	=41	=41
1BB-	1d	1f	1b-
=42	=42	=42	=42
1F	1c	1f	1a
=43	=43	=43	=43
1r	1r	1r	1r
=44	=44	=44	=44
1C	1c	1e	1g
=45	=45	=45	=45
2F	2c	2f	2a
2G	2B-	2d	2g
=46	=46	=46	=46
1D	1A	1d	1f#X
=47	=47	=47	=47
1BB-	1d	1f	1b-
=48	=48	=48	=48
2F	2c	2f	2a
2G	2B-	2d	2g
=49	=49	=49	=49
1D	1A	1d	1f#X
=50	=50	=50	=50
1r	1r	1r	1r
=51	=51	=51	=51
1D	1F	1A	1d
=52	=52	=52	=52
2F	2A	2f	2c
2C	2c	2g	2e-X
=53	=53	=53	=53
2C	2G	2e	2c
2GG	2B-	2d	[2g
=54	=54	=54	=54
1AA	1A	1c	2g]
.	.	.	[2f
=55	=55	=55	=55
1C	1G	1c	2f]
.	.	.	2e
=56	=56	=56	=56
1F;	1F;	1c;	1f;
==	==	==	==
*-	*-	*-	*-
!!!software: music21 v.9.7.1
!!!software: music21 v.9.1.0
!!!RDF**kern: > = above
!!!RDF**kern: < = below
